X:1
T: The Frog's Frolic
C:
R:Jig
Q:180
K:Em
M:6/8
L:1/16
E2D2E2 G4E2|B4E2 G4E2|F4D2 D2F2A2|A2B2A2 A2F2D2|E2D2E2 G4E2|B4E2 G4A2|B2c2B2 A2G2F2|B2G2E2 E6|
E2D2E2 G4E2|B4E2 G4E2|F4D2 D2F2A2|A2B2A2 A2F2D2|E2D2E2 G4E2|B4E2 G4A2|B2c2B2 A2G2F2|B2G2E2 E6|
g2b2g2 e4f2|g2b2g2 e4g2|f2a2f2 d4e2|f2a2f2 d4f2|g2b2g2 e4f2|g2b2g2 e4f2|g2f2e2 b2g2e2|e2f2e2 e4f2|
g2b2g2 e4f2|g2b2g2 e4g2|f2a2f2 d4e2|f2a2f2 d4f2|e2f2g2 f2g2a2|g2a2b2 e4B2|B2c2B2 A2G2F2|B2G2E2 E6||
